X:190
T:Ten Point Buck Breakdo
R:reel
C:Bruce Osborne - Dec. 2002
Z:abc by bosborne@kos.net
M:2/4
L:1/8
K:Eb
B,/D/|EE/D/ E/F/G/A/|B/c/B/G/ E/G/F/E/|D/B,/D/E/ F/D/B,/D/|E/D/E/F/ GB,/D/|\
EE/D/ E/F/G/A/|B/c/B/G/ E/G/F/E/|D/B,/D/E/ F/E/D/F/|E/D/E/F/ E:|
|:B/c/|B/G/E/C/ B,/G,/B,/E/|G/E/c/G/ BF/G/|A/F/D/B,/ A,/B,/D/F/|E/D/E/F/ GB/c/|\
B/G/E/C/ B,/G,/B,/E/|G/E/c/G/ BF/G/|A/F/D/B,/ A,/B,/D/F/|E/D/E/F/ E:|
